remix/Finance/coupon-3-fill.svg

<svg viewBox="0 0 24 24" fill="currentColor" xmlns="http://www.w3.org/2000/svg"><path d="M11.0049 20.9997C11.0049 20.1712 10.3333 19.4997 9.50488 19.4997C8.67646 19.4997 8.00488 20.1712 8.00488 20.9997H3.00488C2.4526 20.9997 2.00488 20.5519 2.00488 19.9997V3.99966C2.00488 3.44738 2.4526 2.99966 3.00488 2.99966H8.00488C8.00488 3.82809 8.67646 4.49966 9.50488 4.49966C10.3333 4.49966 11.0049 3.82809 11.0049 2.99966H21.0049C21.5572 2.99966 22.0049 3.44738 22.0049 3.99966V9.49966C20.6242 9.49966 19.5049 10.619 19.5049 11.9997C19.5049 13.3804 20.6242 14.4997 22.0049 14.4997V19.9997C22.0049 20.5519 21.5572 20.9997 21.0049 20.9997H11.0049ZM9.50488 10.4997C10.3333 10.4997 11.0049 9.82809 11.0049 8.99966C11.0049 8.17124 10.3333 7.49966 9.50488 7.49966C8.67646 7.49966 8.00488 8.17124 8.00488 8.99966C8.00488 9.82809 8.67646 10.4997 9.50488 10.4997ZM9.50488 16.4997C10.3333 16.4997 11.0049 15.8281 11.0049 14.9997C11.0049 14.1712 10.3333 13.4997 9.50488 13.4997C8.67646 13.4997 8.00488 14.1712 8.00488 14.9997C8.00488 15.8281 8.67646 16.4997 9.50488 16.4997Z"/></svg>

<svg viewBox="0 0 24 24" xmlns="http://www.w3.org/2000/svg"><path fill="none" d="M0 0h24v24H0Z"/><path d="M11 21v0c0-.83-.68-1.5-1.5-1.5 -.83 0-1.5.67-1.5 1.5H3v0c-.56 0-1-.45-1-1V4v0c0-.56.44-1 1-1h5v0c0 .82.67 1.5 1.5 1.5 .82 0 1.5-.68 1.5-1.5h10v0c.55 0 1 .44 1 1v5.5 0c-1.39 0-2.5 1.11-2.5 2.5 0 1.38 1.11 2.5 2.5 2.5V20v0c0 .55-.45 1-1 1H11ZM9.5 10.5v0c.82 0 1.5-.68 1.5-1.5 0-.83-.68-1.5-1.5-1.5v0C8.67 7.5 8 8.17 8 9c0 .82.67 1.5 1.5 1.5Zm0 6v0c.82 0 1.5-.68 1.5-1.5 0-.83-.68-1.5-1.5-1.5v0c-.83 0-1.5.67-1.5 1.5 0 .82.67 1.5 1.5 1.5Z"/></svg>
